ucz.svg

<?xml version="1.0" encoding="UTF-8" standalone="no"?>
<svg width="1411px" height="1286px" viewBox="0 0 1411 1286" version="1.1" xmlns="http://www.w3.org/2000/svg" xmlns:xlink="http://www.w3.org/1999/xlink" xmlns:sketch="http://www.bohemiancoding.com/sketch/ns">
    <!-- Generator: Sketch 3.0.4 (8054) - http://www.bohemiancoding.com/sketch -->
    <title>Dimensions 6</title>
    <desc>Created with Sketch.</desc>
    <defs></defs>
    <g id="Page-1" stroke="none" stroke-width="1" fill="none" fill-rule="evenodd" sketch:type="MSPage">
        <g id="Dimensions-6" sketch:type="MSArtboardGroup">
            <g id="Combo-original" sketch:type="MSLayerGroup">
                <rect id="Rectangle-2" sketch:type="MSShapeGroup" x="0" y="0" width="1411" height="1286"></rect>
                <g id="Oval-149-+-Oval-150-+-Oval-23" transform="translate(503.928571, 289.709888)" sketch:type="MSShapeGroup">
                    <path d="M206.970663,413.871269 C321.277404,413.871269 413.941327,321.223029 413.941327,206.935634 C413.941327,92.6482393 321.277404,0 206.970663,0 C92.6639223,0 0,92.6482393 0,206.935634 C0,321.223029 92.6639223,413.871269 206.970663,413.871269 Z" id="Oval-149" fill="#498BFA"></path>
                    <path d="M206.970663,413.871269 C321.277404,413.871269 413.941327,321.223029 413.941327,206.935634 C413.941327,92.6482393 321.277404,0 206.970663,0 C92.6639223,0 0,92.6482393 0,206.935634 C0,321.223029 92.6639223,413.871269 206.970663,413.871269 Z" id="Oval-150" fill="#498BFA"></path>
                    <path d="M206.970663,413.871269 C321.277404,413.871269 413.941327,321.223029 413.941327,206.935634 C413.941327,92.6482393 321.277404,0 206.970663,0 C92.6639223,0 0,92.6482393 0,206.935634 C0,321.223029 92.6639223,413.871269 206.970663,413.871269 Z" id="Oval-151" fill="#498BFA"></path>
                    <path d="M255.61218,114.838372 L255.61218,238.456136 C255.61218,264.062289 234.865048,285.530473 209.271061,286.40416 C209.271061,286.40416 207.506901,286.468261 207.350813,286.468261 C207.103326,286.468261 205.127286,286.395853 205.127286,286.395853 C179.305042,285.525631 158.371977,263.870582 158.371977,238.03454 L158.371977,114.838372 L128.077403,114.838372 L128.077403,237.51486 C128.077403,281.082044 163.396152,316.323437 206.961671,316.228721 L207.350812,316.227875 L207.350812,316.227875 C250.700032,316.227875 285.841518,280.918047 285.841518,237.337777 L285.841518,114.838372 L255.61218,114.838372 Z" id="Oval-20" fill="#FFFFFF"></path>
                </g>
                <path d="M369.32168,993.952684 C357.741793,993.952684 347.186439,992.216497 337.655301,988.74407 C328.124163,985.271643 319.929289,980.107599 313.070433,973.251782 C306.211577,966.395966 300.911631,957.8931 297.170437,947.742929 C293.429243,937.592759 291.558673,925.929142 291.558673,912.751728 L291.558673,804.038606 L312.669593,804.038606 L312.669593,911.416186 C312.669593,931.716527 317.702315,947.297694 327.767909,958.160157 C337.833503,969.02262 351.862771,974.45377 369.856134,974.45377 C387.136889,974.45377 400.854395,969.289726 411.009066,958.961483 C421.163736,948.633239 426.240995,933.230142 426.240995,912.751728 L426.240995,804.038606 L447.351914,804.038606 L447.351914,911.149078 C447.351914,924.860711 445.481345,936.880469 441.740151,947.208713 C437.998957,957.536956 432.699011,966.173375 425.840155,973.118228 C418.981298,980.063082 410.786424,985.271643 401.255286,988.74407 C391.724149,992.216497 381.07972,993.952684 369.32168,993.952684 Z M560.836717,986.740757 C549.434982,981.754708 539.547688,974.943512 531.174539,966.306964 C522.80139,957.670415 516.254398,947.47588 511.533367,935.723051 C506.812336,923.970222 504.451856,911.416253 504.451856,898.060766 C504.451856,884.349135 506.812336,871.884201 511.533367,860.131372 C516.254398,848.378543 522.80139,838.094972 531.174539,829.280351 C539.547688,820.465729 549.524057,813.52098 561.103944,808.445895 C572.683831,803.37081 585.332441,800.833305 599.050153,800.833305 C607.601455,800.833305 615.306418,801.545587 622.165274,802.970173 C629.02413,804.394758 635.392973,806.398051 641.271992,808.980112 C647.151012,811.562173 652.58457,814.678406 657.572829,818.328906 C662.561088,821.979406 667.371123,826.03051 672.003077,830.482339 L657.572829,845.974626 C649.555984,838.495553 640.960273,832.352122 631.78544,827.544146 C622.610606,822.736171 611.609878,820.332219 598.782926,820.332219 C588.450104,820.332219 578.874572,822.290995 570.056042,826.208604 C561.237513,830.126214 553.577087,835.557364 547.074535,842.502217 C540.571983,849.44707 535.494724,857.593795 531.842606,866.942636 C528.190488,876.291477 526.364456,886.307942 526.364456,896.992332 C526.364456,908.389012 528.190488,918.494512 531.842606,927.843353 C535.494724,937.192194 540.571983,945.338919 547.074535,952.283772 C553.577087,959.228626 561.237513,964.704293 570.056042,968.710939 C578.874572,972.717586 588.450104,974.720879 598.782926,974.720879 C611.609878,974.720879 622.655143,972.361445 631.919053,967.642506 C641.182963,962.923567 650.268584,956.290441 659.17619,947.742929 L673.071985,961.365458 C668.261878,966.351507 663.229156,970.847787 657.973669,974.854433 C652.718182,978.861079 647.061937,982.288936 641.004765,985.138107 C634.947594,987.987277 628.445139,990.213158 621.497207,991.815817 C614.549275,993.418475 606.799774,994.219792 598.248473,994.219792 C584.708912,994.219792 572.238452,991.726806 560.836717,986.740757 Z M822.320894,994.219792 C808.068726,994.219792 795.108354,991.63777 783.439391,986.473649 C771.770428,981.309527 761.749522,974.32026 753.376373,965.505639 C745.003224,956.691017 738.545306,946.451964 734.002428,934.788172 C729.459549,923.12438 727.188143,910.882033 727.188143,898.060766 L727.188143,897.526549 C727.188143,884.705281 729.504086,872.418417 734.136041,860.665589 C738.767996,848.91276 745.27045,838.629189 753.643599,829.814568 C762.016749,820.999946 772.082192,813.966162 783.840231,808.713003 C795.59827,803.459845 808.603179,800.833305 822.855348,800.833305 C837.107517,800.833305 850.067888,803.415328 861.736852,808.579449 C873.405815,813.743571 883.426721,820.732838 891.79987,829.547459 C900.173019,838.362081 906.630936,848.601134 911.173815,860.264926 C915.716694,871.928718 917.988099,884.171064 917.988099,896.992332 C918.166251,897.170405 918.166251,897.348476 917.988099,897.526549 C917.988099,910.347817 915.672156,922.63468 911.040201,934.387509 C906.408246,946.140338 899.905792,956.423909 891.532643,965.23853 C883.159494,974.053152 873.09405,981.086936 861.336011,986.340094 C849.577972,991.593253 836.573063,994.219792 822.320894,994.219792 Z M821.655518,974.720879 C832.344645,974.720879 842.187401,972.717586 851.184083,968.710939 C860.180764,964.704293 867.885727,959.228626 874.299203,952.283772 C880.712679,945.338919 885.745401,937.236712 889.397519,927.976907 C893.049637,918.717103 894.875669,908.745155 894.875669,898.060766 L894.875669,897.526549 C894.875669,886.842159 893.049637,876.825694 889.397519,867.476853 C885.745401,858.128012 880.623604,849.981287 874.031976,843.036434 C867.440348,836.09158 859.64631,830.571395 850.649629,826.475713 C841.652947,822.38003 831.810191,820.332219 821.121064,820.332219 C810.431938,820.332219 800.589181,822.335512 791.5925,826.342158 C782.595818,830.348804 774.890855,835.824472 768.477379,842.769325 C762.063903,849.714179 757.031182,857.816386 753.379063,867.07619 C749.726945,876.335995 747.900913,886.307942 747.900913,896.992332 L747.900913,897.526549 C747.900913,908.210939 749.726945,918.227404 753.379063,927.576245 C757.031182,936.925086 762.152978,945.071811 768.744606,952.016664 C775.336234,958.961517 783.130272,964.481703 792.126954,968.577385 C801.123635,972.673068 810.966391,974.720879 821.655518,974.720879 Z M970.164415,976.857746 L1092.418,823.003303 L975.372647,823.003303 L975.372647,804.038606 L1121.2785,804.038606 L1121.2785,818.195352 L999.957516,972.049795 L1121.2785,972.049795 L1121.2785,991.014491 L971.364245,991.014491 L970.164415,976.857746 Z" id="UCOZ-3" fill="#000000" sketch:type="MSShapeGroup"></path>
            </g>
        </g>
    </g>
</svg>

<svg xmlns="http://www.w3.org/2000/svg" height="800" width="1200" viewBox="-211.65 -321.5 1834.3 1929"><g fill-rule="evenodd" fill="none"><path d="M0 0h1411v1286H0z"/><path fill="#498BFA" d="M710.9 703.581c114.306 0 206.97-92.648 206.97-206.935 0-114.288-92.664-206.936-206.97-206.936-114.308 0-206.971 92.648-206.971 206.936 0 114.287 92.663 206.935 206.97 206.935z"/><path fill="#498BFA" d="M710.9 703.581c114.306 0 206.97-92.648 206.97-206.935 0-114.288-92.664-206.936-206.97-206.936-114.308 0-206.971 92.648-206.971 206.936 0 114.287 92.663 206.935 206.97 206.935z"/><path fill="#498BFA" d="M710.9 703.581c114.306 0 206.97-92.648 206.97-206.935 0-114.288-92.664-206.936-206.97-206.936-114.308 0-206.971 92.648-206.971 206.936 0 114.287 92.663 206.935 206.97 206.935z"/><path fill="#FFF" d="M759.54 404.548v123.618c0 25.606-20.746 47.074-46.34 47.948 0 0-1.765.064-1.92.064-.248 0-2.224-.072-2.224-.072-25.822-.87-46.755-22.526-46.755-48.362V404.548h-30.295v122.677c0 43.567 35.319 78.808 78.884 78.714l.39-.001c43.349 0 78.49-35.31 78.49-78.89v-122.5z"/><path fill="#000" d="M369.322 993.953c-11.58 0-22.136-1.736-31.667-5.209-9.53-3.472-17.726-8.636-24.585-15.492-6.858-6.856-12.158-15.359-15.9-25.51-3.74-10.15-5.611-21.813-5.611-34.99V804.039h21.11v107.377c0 20.3 5.033 35.882 15.099 46.744 10.066 10.863 24.095 16.294 42.088 16.294 17.28 0 30.998-5.164 41.153-15.493 10.155-10.328 15.232-25.73 15.232-46.21V804.04h21.11v107.11c0 13.712-1.87 25.731-5.61 36.06-3.742 10.328-9.042 18.964-15.9 25.91-6.86 6.944-15.055 12.153-24.586 15.625-9.53 3.472-20.175 5.209-31.933 5.209zm191.515-7.212c-11.402-4.986-21.29-11.797-29.662-20.434-8.374-8.637-14.92-18.831-19.642-30.584-4.72-11.753-7.081-24.307-7.081-37.662 0-13.712 2.36-26.177 7.081-37.93 4.721-11.752 11.268-22.036 19.642-30.85 8.373-8.815 18.35-15.76 29.929-20.835 11.58-5.075 24.228-7.613 37.946-7.613 8.551 0 16.256.713 23.115 2.137 6.86 1.425 13.228 3.428 19.107 6.01s11.313 5.698 16.3 9.349a140.982 140.982 0 0114.431 12.153l-14.43 15.493c-8.017-7.48-16.613-13.623-25.788-18.43-9.174-4.809-20.175-7.213-33.002-7.213-10.333 0-19.908 1.959-28.727 5.877-8.818 3.917-16.479 9.348-22.981 16.293-6.503 6.945-11.58 15.092-15.232 24.44-3.653 9.35-5.479 19.366-5.479 30.05 0 11.397 1.826 21.503 5.479 30.851 3.652 9.35 8.729 17.496 15.232 24.44 6.502 6.946 14.163 12.421 22.981 16.428 8.819 4.007 18.394 6.01 28.727 6.01 12.827 0 23.872-2.36 33.136-7.078 9.264-4.72 18.35-11.353 27.257-19.9l13.896 13.622c-4.81 4.987-9.843 9.483-15.098 13.49a93.64 93.64 0 01-16.97 10.283c-6.056 2.85-12.559 5.075-19.507 6.678-6.948 1.602-14.697 2.404-23.249 2.404-13.54 0-26.01-2.493-37.411-7.48zm261.484 7.479c-14.252 0-27.213-2.582-38.882-7.746-11.669-5.164-21.69-12.154-30.063-20.968-8.373-8.815-14.83-19.054-19.374-30.718-4.542-11.664-6.814-23.906-6.814-36.727v-.534c0-12.822 2.316-25.109 6.948-36.861 4.632-11.753 11.134-22.037 19.508-30.851 8.373-8.815 18.438-15.849 30.196-21.102 11.758-5.253 24.763-7.88 39.015-7.88 14.253 0 27.213 2.582 38.882 7.746 11.669 5.165 21.69 12.154 30.063 20.968 8.373 8.815 14.83 19.054 19.374 30.718 4.543 11.664 6.814 23.906 6.814 36.727.178.178.178.356 0 .535 0 12.82-2.316 25.108-6.948 36.86-4.632 11.753-11.134 22.037-19.507 30.852-8.374 8.814-18.439 15.848-30.197 21.101-11.758 5.253-24.763 7.88-39.015 7.88zm-.665-19.5c10.689 0 20.531-2.002 29.528-6.01 8.997-4.006 16.702-9.481 23.115-16.426 6.414-6.945 11.446-15.047 15.099-24.307 3.652-9.26 5.478-19.232 5.478-29.916v-.534c0-10.685-1.826-20.701-5.478-30.05-3.653-9.349-8.774-17.496-15.366-24.44-6.592-6.945-14.386-12.466-23.382-16.561-8.997-4.096-18.84-6.144-29.529-6.144-10.69 0-20.532 2.004-29.529 6.01-8.996 4.007-16.701 9.482-23.115 16.427-6.413 6.945-11.446 15.047-15.098 24.307-3.652 9.26-5.478 19.232-5.478 29.916v.535c0 10.684 1.826 20.7 5.478 30.05 3.652 9.348 8.774 17.495 15.366 24.44 6.591 6.945 14.385 12.465 23.382 16.56 8.997 4.096 18.84 6.144 29.529 6.144zm148.508 2.138l122.254-153.855H975.373V804.04h145.905v14.156L999.958 972.05h121.32v18.964H971.365z"/></g></svg>
